icon-themes/breeze_svg/cmd/sc_alphaliststyle.svg

<svg viewBox="0 0 16 16" xmlns="http://www.w3.org/2000/svg"><path d="m8 2v1h6v-1zm0 2v1h4v-1zm0 4v1h6v-1zm0 2v1h2v-1zm3 0v1h1.875.125 1v-1h-1-.125zm1 3v1h2v-1z" fill="#4d4d4d"/><g fill="#1d99f3"><path d="m5 2a2 2 0 0 0 -2 2 2 2 0 0 0 2 2h1v-1h-1a1 1 0 0 1 -1-1 1 1 0 0 1 1-1h1v-1z"/><path d="m3 8v4h1 1a2 2 0 0 0 2-2 2 2 0 0 0 -2-2h-1zm1 1h1a1 1 0 0 1 1 1 1 1 0 0 1 -1 1h-1z"/></g></svg>

<svg viewBox="0 0 16 16" xmlns="http://www.w3.org/2000/svg">
  <path
     style="fill:#4d4d4d"
     d="m 8,2 v 1 h 6 V 2 Z m 0,2 v 1 h 4 V 4 Z m 0,4 v 1 h 6 V 8 Z m 0,2 v 1 h 2 v -1 z m 3,0 v 1 H 12.875 13 14 v -1 h -1 -0.125 z m 1,3 v 1 h 2 v -1 z"
     />
  <path
     style="fill:#1d99f3"
     d="M 5,2 A 2,2 0 0 0 3,4 2,2 0 0 0 5,6 H 6 V 5 H 5 A 1,1 0 0 1 4,4 1,1 0 0 1 5,3 H 6 V 2 Z"
     />
  <path
     style="fill:#1d99f3"
     d="M 3 8 L 3 12 L 4 12 L 5 12 A 2 2 0 0 0 7 10 A 2 2 0 0 0 5 8 L 4 8 L 3 8 z M 4 9 L 5 9 A 1 1 0 0 1 6 10 A 1 1 0 0 1 5 11 L 4 11 L 4 9 z "
     />
</svg>
